logos/webflow.svg

<?xml version="1.0" encoding="UTF-8"?>
<svg width="512px" height="129px" viewBox="0 0 512 129" version="1.1" xmlns="http://www.w3.org/2000/svg" xmlns:xlink="http://www.w3.org/1999/xlink" preserveAspectRatio="xMidYMid">
    <g>
        <path d="M165.324756,50.3575405 C165.324756,41.1728319 156.393418,31.4180379 140.937771,31.4180379 C123.581838,31.4180379 104.51565,44.1499443 101.60188,69.5504145 C98.624768,95.2042558 114.587158,106.605963 130.676234,106.605963 C146.76531,106.605963 155.189905,100.335024 163.804528,91.9737721 C156.393418,82.6623778 146.828653,86.9696895 144.991711,87.9198317 C142.964741,88.9333168 140.367685,90.3268588 135.046889,90.3268588 C128.839292,90.3268588 122.505011,87.5397748 122.505011,75.9480391 C162.2843,72.0207844 165.324756,59.5422492 165.324756,50.3575405 Z M145.625139,51.8777682 C145.371768,54.728195 144.231597,59.605592 124.088581,62.3293332 C128.33255,47.2537424 136.440431,46.1135717 140.177657,46.1135717 C143.661512,46.1135717 145.87851,48.8373129 145.625139,51.8777682 Z M78.2283806,54.3481381 C78.2283806,54.3481381 69.6771001,81.205493 68.9803291,83.4224916 C68.7269578,81.1421502 62.4560188,32.9382655 62.4560188,32.9382655 C47.8871706,32.9382655 40.096004,43.3264877 35.9787208,54.2847952 C35.9787208,54.2847952 25.5904986,81.205493 24.7036991,83.4858345 C24.6403563,81.3955215 23.1201287,54.6015093 23.1201287,54.6015093 C22.2333292,41.1728319 9.94482247,33.0016083 0,33.0016083 L12.0351355,106.035878 C27.3007547,105.972535 35.535321,95.6476556 39.8426327,84.689348 C39.8426327,84.689348 49.0273413,60.9357912 49.4073982,59.8589633 C49.4707411,60.8724483 55.9950513,106.035878 55.9950513,106.035878 C71.3240134,106.035878 79.5585797,96.3444266 83.992577,85.7661759 L105.465792,33.0016083 C90.3268588,33.0016083 82.3456637,43.3264877 78.2283806,54.3481381 Z M221.573178,31.2913522 C212.135098,31.2913522 204.914017,36.4221205 198.833107,43.9599159 L198.833107,43.8965731 L204.280589,0 C191.738711,0 181.540517,10.8949647 179.57689,27.1107262 L170.075467,105.465792 C177.296548,105.465792 184.961029,103.375479 189.078313,98.0546827 C192.752196,102.805394 198.263021,106.605963 206.434245,106.605963 C227.590746,106.605963 242.096251,82.0289496 242.096251,58.9721638 C241.969566,37.9423481 231.771372,31.2913522 221.573178,31.2913522 Z M219.609551,68.9803291 C217.392552,81.8389212 210.234814,90.5802301 203.330447,90.5802301 C196.362737,90.5802301 193.385624,87.476432 193.385624,87.476432 C194.715823,76.2014104 195.53928,69.2970432 198.072993,63.3428183 C200.606705,57.3885933 206.624273,47.8871706 212.895212,47.8871706 C219.039466,47.8871706 221.82655,56.0583942 219.609551,68.9803291 Z M294.924162,33.0016083 L280.165285,33.0016083 L280.228628,32.2414945 C281.242113,22.6133861 283.522455,17.5459607 291.06025,16.722504 C296.191018,16.2157615 298.47136,13.5553631 299.041445,10.6415935 C299.484845,8.36125201 300.878387,0.443399728 300.878387,0.443399728 C271.233948,0.253371273 261.922554,13.0486206 259.515526,32.5582086 L259.452184,33.0016083 L259.13547,33.0016083 C254.321415,33.0016083 249.000619,38.4490907 248.113819,45.3534579 L247.797105,47.8871706 L257.678585,47.8871706 L249.380675,116.4241 L246.846963,128.712607 C247.163677,128.712607 247.543734,128.77595 247.860448,128.77595 C261.732525,128.269207 270.60052,117.310899 272.564147,101.411852 L279.025114,47.8871706 L283.64914,47.8871706 C288.209823,47.8871706 293.53062,43.3264877 294.480762,35.7253495 L294.924162,33.0016083 Z M371.695658,31.7347519 C354.656439,31.7347519 338.567364,44.27663 333.626624,63.9762464 C328.685884,83.6758629 336.160337,106.98602 361.244093,106.98602 C386.264506,106.98602 400.706668,82.7257206 400.706668,62.5193616 C400.706668,42.4396882 387.087962,31.7347519 371.695658,31.7347519 Z M378.600025,68.3469009 C377.713225,77.2782383 373.785971,90.8336014 363.017691,90.8336014 C352.18607,90.8336014 353.706297,74.9978968 354.783125,67.4601014 C355.923296,59.4155635 360.420636,47.9505134 370.112087,47.9505134 C378.790053,47.9505134 379.61351,58.2753928 378.600025,68.3469009 Z M484.889274,54.3481381 C484.889274,54.3481381 476.337993,81.205493 475.641222,83.4224916 C475.387851,81.1421502 469.116912,32.9382655 469.116912,32.9382655 C454.548064,32.9382655 446.756897,43.3264877 442.639614,54.2847952 C442.639614,54.2847952 432.251392,81.205493 431.364592,83.4858345 C431.30125,81.3955215 429.781022,54.6015093 429.781022,54.6015093 C428.894222,41.1728319 416.605716,33.0016083 406.660893,33.0016083 L418.632686,106.035878 C433.898305,105.972535 442.132871,95.6476556 446.440183,84.689348 C446.440183,84.689348 455.624892,60.9357912 455.941606,59.8589633 C456.004949,60.8724483 462.529259,106.035878 462.529259,106.035878 C477.858221,106.035878 486.092787,96.3444266 490.526785,85.7661759 L512,33.0016083 C496.924409,33.0016083 488.943214,43.3264877 484.889274,54.3481381 Z M308.859582,0.443399728 L296.444389,100.588395 L296.444389,100.588395 L293.910677,112.940245 C294.227391,112.940245 294.607448,113.003588 294.924162,113.003588 L294.924162,113.003588 C308.289496,112.813559 317.790919,101.095138 319.564518,86.3362613 L326.722257,28.8843251 C328.875912,11.3383645 318.424347,0.443399728 308.859582,0.443399728 Z" fill="#4353FF" fill-rule="nonzero"></path>
    </g>
</svg>

<svg preserveAspectRatio="xMidYMid" viewBox="0 0 512 129" xmlns="http://www.w3.org/2000/svg">
  <path fill="#4353FF" d="M165.325 50.358c0-9.185-8.932-18.94-24.387-18.94-17.356 0-36.422 12.732-39.336 38.132-2.977 25.654 12.985 37.056 29.074 37.056 16.09 0 24.514-6.271 33.129-14.632-7.412-9.312-16.976-5.004-18.813-4.054-2.027 1.013-4.624 2.407-9.945 2.407-6.208 0-12.542-2.787-12.542-14.379 39.78-3.927 42.82-16.406 42.82-25.59Zm-19.7 1.52c-.253 2.85-1.393 7.728-21.536 10.451 4.244-15.075 12.351-16.215 16.089-16.215 3.484 0 5.7 2.723 5.447 5.764Zm-67.397 2.47s-8.55 26.857-9.248 29.074c-.253-2.28-6.524-50.484-6.524-50.484-14.569 0-22.36 10.388-26.477 21.347 0 0-10.389 26.92-11.275 29.2-.064-2.09-1.584-28.883-1.584-28.883-.887-13.43-13.175-21.6-23.12-21.6l12.035 73.034c15.266-.063 23.5-10.388 27.808-21.347 0 0 9.184-23.753 9.564-24.83.064 1.013 6.588 46.177 6.588 46.177 15.329 0 23.564-9.692 27.998-20.27l21.473-52.764c-15.14 0-23.12 10.324-27.238 21.346Zm143.345-23.057c-9.438 0-16.659 5.131-22.74 12.669v-.063L204.281 0c-12.542 0-22.74 10.895-24.704 27.11l-9.502 78.356c7.222 0 14.886-2.09 19.003-7.411 3.674 4.75 9.185 8.551 17.356 8.551 21.157 0 35.662-24.577 35.662-47.634-.126-21.03-10.325-27.68-20.523-27.68Zm-1.963 37.69c-2.217 12.858-9.375 21.6-16.28 21.6-6.967 0-9.944-3.105-9.944-3.105 1.33-11.275 2.153-18.179 4.687-24.133 2.534-5.954 8.551-15.456 14.822-15.456 6.144 0 8.932 8.171 6.715 21.093ZM294.924 33h-14.759l.064-.76c1.013-9.628 3.293-14.695 10.831-15.518 5.131-.507 7.411-3.168 7.981-6.081.444-2.28 1.837-10.199 1.837-10.199-29.644-.19-38.955 12.606-41.362 32.115l-.064.444h-.317c-4.814 0-10.134 5.447-11.021 12.351l-.317 2.534h9.882l-8.298 68.537-2.534 12.289c.317 0 .697.063 1.013.063 13.873-.507 22.74-11.465 24.704-27.364l6.461-53.525h4.624c4.56 0 9.882-4.56 10.832-12.162l.443-2.723Zm76.772-1.266c-17.04 0-33.129 12.542-38.07 32.241-4.94 19.7 2.534 43.01 27.618 43.01 25.02 0 39.463-24.26 39.463-44.467 0-20.08-13.619-30.784-29.011-30.784Zm6.904 36.612c-.887 8.931-4.814 22.487-15.582 22.487-10.832 0-9.312-15.836-8.235-23.374 1.14-8.044 5.638-19.51 15.33-19.51 8.677 0 9.5 10.325 8.487 20.397Zm106.29-13.999s-8.552 26.857-9.249 29.074c-.253-2.28-6.524-50.484-6.524-50.484-14.569 0-22.36 10.388-26.477 21.347 0 0-10.389 26.92-11.275 29.2-.064-2.09-1.584-28.883-1.584-28.883-.887-13.43-13.175-21.6-23.12-21.6l11.972 73.034c15.265-.063 23.5-10.388 27.807-21.347 0 0 9.185-23.753 9.502-24.83.063 1.013 6.587 46.177 6.587 46.177 15.33 0 23.564-9.692 27.998-20.27L512 33.002c-15.076 0-23.057 10.324-27.11 21.346ZM308.86.443l-12.416 100.145-2.533 12.352c.316 0 .696.064 1.013.064 13.365-.19 22.867-11.909 24.64-26.668l7.158-57.452c2.154-17.546-8.298-28.44-17.862-28.44Z"/>
</svg>
